!!!!SEGMENT: T434_Ber-w6p16-17m10-22.krn
!!!COM: Berg, Alban (Maria Johannes)
!!!OTL: II: Mäßig Viertel (Moderate Quarters)
!!!AGN: Instrumental
!!!AGN-sub: Chamber
!!!CNT: Austrian
!!!ODT: 1910
!!!OPR: String Quartet Op. 3
!!!filename: T434_Ber-w6p16-17m10-22.krn
**kern	**dynam	**kern	**dynam	**kern	**dynam	**kern	**dynam
*grp:A	*	*grp:B	*	*grp:A	*	*grp:A	*
*part4	*	*part3	*	*part2	*	*part1	*
*staff4	*	*staff3	*	*staff2	*	*staff1	*
*I"Violoncello	*	*I"Viola	*	*I"Violin II	*	*I"Violin I	*
*I'Vc.	*	*I'Vla.	*	*I'Vln. II	*	*I'Vln. I	*
*clefF4	*	*clefG2	*	*clefG2	*	*clefG2	*
*k[]	*	*k[]	*	*k[]	*	*k[]	*
*C:	*	*C:	*	*C:	*	*C:	*
!!!ONB: The score provides a 3/8 time signature in addition to the dashed barlines to indicate rhythmic grouping
*M9/8	*	*M9/8	*	*M9/8	*	*M9/8	*
!!LO:REH:t=10
=1	=1	=1	=1	=1	=1	=1	=1
!!LO:TX:t=[eighth]=[eighth] von früher. Der halbe 3/4 (resp. 6/8) Takt ist gleich dem jetzigen 3/8 Takt, so daβ die Achteln, wie auch im Folgenden, gleich bleiben.
!	!LO:DY:rj	!	!LO:DY:rj	!	!LO:DY:rj	!	!LO:DY:rj
(4a-Xv	ffppp <	8ffL]	fp >	(4an'	ffppp <	(4ee-X'v	ffppp <
.	.	8een	.	.	.	.	.
[8A-X'	[[	8ddJ)j	]	[>8An'	[[	[8e-X'	[[
=:	=:	=:	=:	=:	=:	=:	=:
8A-]	pp >	(4fn^	.	8A']	pp >	8e-]	pp >
4G-X')	.	.	<	4B-X')	.	4en')	.
.	]]	8gn	[[	.	]	.	]
=:	=:	=:	=:	=:	=:	=:	=:
*grp:A	*	*grp:B	*	*grp:A	*	*grp:B	*
(4F-X'u	.	8.b-X~L)	>	(4An'u	.	(16e-X^uLL	pp
.	.	.	.	.	.	16dnJJ	>
.	<	.	]	.	<	4d-X')	.
.	.	(16enL	.	.	.	.	.
[<8E-X'	.	16f#X	<	8A-X'	.	.	]
.	[[	16anJJ	[[	.	[[	.	.
=2	=2	=2	=2	=2	=2	=2	=2
!	!	!LO:TX:b:i:t=molto	!	!	!	!	!
8E-]	.	4.a-X)	>	L8Gn')	p >	(16cn^uLL	.
.	>	.	.	.	]	16BnJJ	>
!	!	!	!	!LO:TX:b:i:t=espr. molto	!	!	!
4Dn')	.	.	.	16ra	.	4B-X')	.
.	.	.	.	(16an	f >	.	]
.	]]	.	]	[>8bnJ	.	.	.
*	*	*clefC3	*	*	*	*	*
=:	=:	=:	=:	=:	=:	=:	=:
*grp:A	*	*grp:A	*	*grp:A	*	*grp:A	*
!	!LO:DY:t=( %s )	!LO:TX:a:rj:t=zurücktreten	!	!	!	!	!LO:DY:t=( %s )
(4C#X'v	pp <	(4gn'v	pp ] <	16bLL])	.	(4e-X'v	pp <
.	.	.	.	(16ccnJ	pp ]	.	.
.	.	.	.	[8ddn	<	.	.
[8Cn'	.	[8f#X'	.	16ddL])	.	[8a-X'	.
.	[[	.	.	(16eenJJ	.	.	.
=:	=:	=:	=:	=:	=:	=:	=:
!LO:TX:b:i:t=poco	!	!LO:TX:b:i:t=poco	!	!	!	!LO:TX:b:i:t=poco	!
8C]	.	8f#]	[	16ffnLL	.	8a-]	[
.	.	.	.	16aan	.	.	.
4BBn')	] > ]	4fn')	] > ]	16eeen'J)	[	4dd-X')	> ]
.	.	.	.	16r	.	.	.
.	.	.	.	[8eee^J	p	.	.
=3	=3	=3	=3	=3	=3	=3	=3
!LO:TX:a:i:t=poco espr.	!	!LO:TX:a:i:t=poco espr.	!	!	!	!	!
(16BB-XLL	p <	4cn^	p	8eee]	.	4ddn'	.
16Dn	.	.	.	.	.	.	.
16An'J)	[	.	.	4eeen^	.	.	.
16r	.	.	.	.	.	.	<
!	!	!	!	!	!	!LO:TX:B:a:t=poco accel.	!
[8AJ	>	([8c^	<	.	.	[8dd#X'	.
=:	=:	=:	=:	=:	=:	=:	=:
8AL]	]	8cL]	[	4eee^	.	8dd#]	.
(16AA-XL	<	8B-X	.	.	.	4een'	.
16Cn	.	.	.	.	.	.	.
16Gn'JJ)	[	8A-XJ)	.	([8eee^	<	.	.
16r	.	.	.	.	.	.	.
=:	=:	=:	=:	=:	=:	=:	=:
(16GG-XLL	p <	(4Cn	<	8eeeL]	[	4ffn'	.
16BB-	.	.	.	.	.	.	.
16Fn')	.	.	.	8dddn	>	.	.
(16EEn	.	.	.	.	.	.	.
16GG#X	.	8C#X	.	8cccnJ)	.	8ff#X'	[
16Dn'JJ)	[	.	.	.	]]	.	.
=4	=4	=4	=4	=4	=4	=4	=4
*M6/8	*	*M6/8	*	*M6/8	*	*M6/8	*
*grp:B	*	*grp:B	*	*grp:B	*	*grp:A	*
!!LO:TX:t=[eighth]=[eighth]
!	!	!	!	!	!	!	!LO:DY:b:i:t=%s espr.
(16DDn^LL	f >	8.EnL)	[ >	(4ee-X	mf	(16ggnLL	f <
16DD-XJJ	.	.	.	.	.	16bbn	.
4CC')	.	.	.	.	.	16fff#X'J)	[
.	]	(16E-XL	f ] <	.	<	16r	.
.	.	16Fn	.	8ffn	.	[8fff#^J	>
.	.	16A-XJJ	[[	.	.	.	.
!!LO:REH:t=20
=:	=:	=:	=:	=:	=:	=:	=:
(16EEn^LL	f ] >	8.GnL)	>	8bb-X'L)	f [	8fff#']	.
16EE-XJJ	.	.	.	.	.	.	.
4DDn')	.	.	.	(16aanL	<	4fff#y^	p ]
.	]	(16F#XL	] <	16ccc#X	.	.	.
.	.	16G#X	.	16ggg#X'JJ)	[	.	.
.	.	16cnJJ	[	16r'	.	.	.
=5	=5	=5	=5	=5	=5	=5	=5
*M3/8	*	*M3/8	*	*M3/8	*	*M3/8	*
*grp:A	*	*grp:A	*	*grp:B	*	*grp:B	*
!!LO:TX:t=[eighth]=[eighth]
!	!	!	!	!	!LO:DY:rj:t=subito %s	!	!
(16GGn^LL	f <	16Bn'^LL)	>	8.ggg#XL	p	(16bbnLL	f <
16FF#XJ	>	(16B-X	]]	.	.	16ddd#X	.
8FFn')	]	16cn	<	.	.	16aaa#X'J)	.
.	.	16en	[[	(16cccnL	ff <	16r	[
(16BB^L	>	16e-X'^)	>	16eeen	.	8aaa#J	mf
16BB-XJJ	.	(16dnJJ	]]	16bbbn'JJ	[	.	.
=6	=6	=6	=6	=6	=6	=6	=6
!!LO:TX:B:t=riten.
!	!LO:HP:a:molto cresc.	!LO:TUP:a:r=8	!	!	!	!	!
16AAn'LL)	] <	24enLL	<	16r)	.	(16ddd-XLL	.
.	.	24a-X	[[	.	.	.	<
*	*	*	*	*	*	*	*
(16F#X^	>	.	>	8cn 8ccnOOL	ff <	16fffn	.
.	.	24gn'J)	]]	.	.	.	.
.	.	.	.	.	.	.	.
!	!	!LO:TUP:a:r=8	!	!	!	!	!
16Fn	.	(24f#XL	<	.	.	16ccccn')	.
.	.	.	.	.	.	.	.
.	.	24g#X	.	.	.	.	.
16EnJJ)	]	.	.	8en 8eenOO	.	(16ddd#X	.
.	.	24b#XJ	[	.	.	.	.
.	.	.	.	.	.	.	.
!	!	!LO:TUP:r=8	!	!	!	!	!
24c#X^LL	<	24bn'L)	> ]	.	.	16fff#X	.
.	.	.	.	.	.	.	.
24cn^	.	(24b-vXi	<	.	.	.	[
.	.	.	.	16bn 64bbnOOJ	.	16cccc#X'JJ)	.
.	.	.	.	.	.	.	.
24Bn^JJ	[	24ddnJJ	[	.	.	.	.
.	.	.	.	.	.	.	.
.	.	.	.	.	[[	.	.
*	*	*	*	*	*	*	*
=	=	=	=	=	=	=	=
*-	*-	*-	*-	*-	*-	*-	*-
!!!system-decoration: [(s1,s2,s3,s4)]
!!!RDF**kern: > = above
!!!RDF**kern: < =below
!!!RDF**kern: O =tremolo
!!!RDF**kern: i = marked note, color="hotpink", text="extra("
!!!RDF**kern: j = marked note, color="magenta", text="extra)"
!!!EED:Jason Lee
!!!EEV:2022/01/27
!!!EED2: Gabriella Vici
!!!Suter_Work_ID: Ber-6
!!!Suter_Example_Number: 434
!!!Suter_Example_ID: Ber-6/16-17/10-22
!!!Premiere_Location: Vienna,Austria
!!!Other_Tsigs: 6/8,3/8
!!!Full_Unit_Duration: 10:06
!!!First_Publication_Year: 1920
!!!First_Public_Performance_Year: 1911
!!!Example_Total_Measures: 13
!!!Example_Timestamp_Duration: 13
!!!Example_Start_Tsig_Type: changing
!!!Example_Start_Tsig_Mean_Beat_Rate: 60
!!!Example_Start_Tsig_Beat_Rate: 60
!!!Example_Start_Tsig_Beat: dotted-quarter
!!!Example_Start_Tsig: (3/8)9/8
!!!Example_Start_Timestamp: 0:21
!!!Example_Start_Tempo_Expression: [von früher (Bewegter)]
!!!Example_Start_Notated_Beat_Rate: {60}
!!!Example_Start_Notated_Beat: {dotted-quarter}
!!!Example_Start_Measure: 10
!!!Example_Metadata_Validated: Y
!!!Example_End_Timestamp: 0:36
!!!Example_End_Measure: 22
!!!Example_Dataset: T
!!!Editorial_Comments: The 9/8 time signature is made-up of three 3/8 bars separated by dotted-lines. No notated tempo. Example Start Notated Beat and Example Start Notated Beat Rate {dotted-quarter=60} calculated from recording (https://ubc-nml3-naxosmusiclibrary-com.eu1.proxy.openathens.net/catalogue/item.asp?cid=WHRA-6040); tempo for audio synthesis {dotted-quarter=51} was calculated using a Digital Audio Workstation (DAW). Example Start Tempo Expression [von früher (Bewegter)] based on most recent notated tempo expressions (SWFU, m. 10 and m. 4). Additional Note: One measure is missing between page 17 and 18 of the E1 score, so the measure numbers that are provided on the score will be off by one after page 18; note, also, that dotted bar-lines are considered and numbered as regular measures with solid bar-lines.
!!!Death_Place: Vienna,Austria
!!!Death_Date: 24-Dec-1935
!!!Changing_Tsig: yes
!!!Birth_Place: Vienna,Austria
!!!Birth_Date: 9-Feb-1885
!!!Audio_Example_Quarter_Note_Tempo:
!!!Audio_Example_Duration:
!!!EEV2: 2022/03/17
